Systematic/src/svg/NEC - PC Engine CD - TurboGrafx-CD.svg

<svg xmlns="http://www.w3.org/2000/svg" xml:space="preserve" width="330.667" height="218.667"><defs><clipPath id="a" clipPathUnits="userSpaceOnUse"><path d="M0 256h256V0H0Z"/></clipPath><clipPath id="b" clipPathUnits="userSpaceOnUse"><path d="M4 208h248V44H4Z"/></clipPath></defs><g clip-path="url(#a)" transform="matrix(1.33333 0 0 -1.33333 -5.333 277.333)"><g clip-path="url(#b)" style="opacity:.5"><path d="M0 0h-9.914a9.99 9.99 0 0 1-7.436 4.105c-6.955.448-40.746 2.569-70.65 3.476V8h-18v-.033c-2.104.022-4.108.033-6 .033s-3.896-.011-6-.033V8h-18v-.419c-29.904-.907-63.695-3.028-70.65-3.476A9.99 9.99 0 0 1-214.086 0H-224c-6.617 0-12-5.383-12-12v-128.231c0-6.349 4.962-11.612 11.296-11.98C-209.437-153.1-155.902-156-108-156c47.618 0 95.309 2.882 108.791 3.765C7.076-151.823 12-146.563 12-140.261V-12C12-5.383 6.617 0 0 0" style="fill:#fff;fill-opacity:1;fill-rule:nonzero;stroke:none" transform="translate(240 200)"/></g><path d="M0 0v2.126a1.994 1.994 0 0 1-1.864 1.996C-12.259 4.791-63.756 8-96 8s-83.741-3.209-94.136-3.878A1.994 1.994 0 0 1-192 2.126V0h-16a4 4 0 0 1-4-4v-128.231a3.994 3.994 0 0 1 3.761-3.994C-193.748-137.068-139.942-140-92-140c47.433 0 94.864 2.87 108.268 3.748A3.995 3.995 0 0 1 20-132.261V-4a4 4 0 0 1-4 4z" style="fill:#bfbfbf;fill-opacity:1;fill-rule:nonzero;stroke:none" transform="translate(224 192)"/><path d="M0 0c0-5.522-4.478-10-10-10S-20-5.522-20 0s4.478 10 10 10S0 5.522 0 0" style="fill:#ccc;fill-opacity:1;fill-rule:nonzero;stroke:none" transform="translate(220 74)"/><path d="M0 0c-5.522 0-10-4.478-10-10s4.478-10 10-10 10 4.478 10 10S5.522 0 0 0m0-2c4.411 0 8-3.589 8-8s-3.589-8-8-8-8 3.589-8 8 3.589 8 8 8" style="fill:#b3b3b3;fill-opacity:1;fill-rule:nonzero;stroke:none" transform="translate(210 84)"/><path d="M0 0v39.41h-2V.06z" style="fill:#b3b3b3;fill-opacity:1;fill-rule:nonzero;stroke:none" transform="translate(96 52.59)"/><path d="M0 0v37.641h-2V.085z" style="fill:#b3b3b3;fill-opacity:1;fill-rule:nonzero;stroke:none" transform="translate(48 54.36)"/><path d="M0 0v4.004c-26.185 1.183-71.498 3.057-96 3.057s-69.815-1.874-96-3.057V0c26.122 1.182 71.511 3.061 96 3.061 24.488 0 69.879-1.879 96-3.061" style="fill:#ccc;fill-opacity:1;fill-rule:nonzero;stroke:none" transform="translate(224 188)"/><path d="M0 0c-26.185 1.184-71.498 3.057-96 3.057S-165.815 1.184-192 0v-4.004c26.122 1.182 71.511 3.061 96 3.061 24.488 0 69.879-1.879 96-3.061z" style="fill:#ccc;fill-opacity:1;fill-rule:nonzero;stroke:none" transform="translate(224 176.004)"/><path d="M0 0v4.004c-26.185 1.183-71.498 3.057-96 3.057s-69.815-1.874-96-3.057V0c26.122 1.182 71.511 3.061 96 3.061 24.488 0 69.879-1.879 96-3.061" style="fill:#ccc;fill-opacity:1;fill-rule:nonzero;stroke:none" transform="translate(224 180)"/><path d="M114 92h-2v108h2zm30 0h-2v108h2z" style="fill:#b3b3b3;fill-opacity:1;fill-rule:nonzero;stroke:none"/><path d="M0 0h-28v4l2.194.627a43.27 43.27 0 0 0 23.612 0L0 4Z" style="fill:#b80000;fill-opacity:1;fill-rule:nonzero;stroke:none" transform="translate(142 92)"/><path d="M0 0v96.848h-1.959V1.823c0-1.069-.84-1.95-1.908-1.998-26.372-1.183-70.186-2.974-94.092-2.974-23.913 0-67.742 1.791-94.112 2.975a2 2 0 0 0-1.908 1.998v95.024h-1.959V.001l-.021.001v-.181a3.997 3.997 0 0 1 3.817-3.995c26.419-1.186 70.237-2.975 94.183-2.975S-30.194-5.36-3.775-4.174A3.997 3.997 0 0 1 .041-.179v.181z" style="fill:#b3b3b3;fill-opacity:1;fill-rule:nonzero;stroke:none" transform="translate(225.959 95.152)"/><path d="M0 0v2.002C-26.169 3.186-71.501 5.06-96 5.06s-69.831-1.874-96-3.058V0c26.137 1.182 71.508 3.06 96 3.06S-26.138 1.182 0 0" style="fill:#a6a6a6;fill-opacity:1;fill-rule:nonzero;stroke:none" transform="translate(224 178.94)"/><path d="M0 0c26.137 1.182 71.508 3.06 96 3.06S165.862 1.182 192 0v2.002C165.831 3.186 120.499 5.06 96 5.06S26.169 3.186 0 2.002Z" style="fill:#a6a6a6;fill-opacity:1;fill-rule:nonzero;stroke:none" transform="translate(32 186.94)"/><path d="M0 0c-26.169 1.183-71.501 3.058-96 3.058S-165.831 1.183-192 0v-2.002c26.137 1.182 71.508 3.06 96 3.06S-26.138-.82 0-2.002z" style="fill:#a6a6a6;fill-opacity:1;fill-rule:nonzero;stroke:none" transform="translate(224 172.942)"/></g></svg>

<?xml version="1.0" encoding="UTF-8" standalone="no"?>
<svg
   xmlns:dc="http://purl.org/dc/elements/1.1/"
   xmlns:cc="http://creativecommons.org/ns#"
   xmlns:rdf="http://www.w3.org/1999/02/22-rdf-syntax-ns#"
   xmlns:svg="http://www.w3.org/2000/svg"
   xmlns="http://www.w3.org/2000/svg"
   viewBox="0 0 330.66665 218.66665"
   height="218.66666"
   width="330.66666"
   xml:space="preserve"
   id="svg2"
   version="1.1"><metadata
     id="metadata8"><rdf:RDF><cc:Work
         rdf:about=""><dc:format>image/svg+xml</dc:format><dc:type
           rdf:resource="http://purl.org/dc/dcmitype/StillImage" /></cc:Work></rdf:RDF></metadata><defs
     id="defs6"><clipPath
       id="clipPath18"
       clipPathUnits="userSpaceOnUse"><path
         id="path16"
         d="M 0,256 H 256 V 0 H 0 Z" /></clipPath><clipPath
       id="clipPath26"
       clipPathUnits="userSpaceOnUse"><path
         id="path24"
         d="M 4,208 H 252 V 44 H 4 Z" /></clipPath></defs><g
     transform="matrix(1.3333333,0,0,-1.3333333,-5.3333332,277.33333)"
     id="g10"><g
       id="g12"><g
         clip-path="url(#clipPath18)"
         id="g14"><g
           id="g20"><g
             id="g22" /><g
             id="g34"><g
               style="opacity:0.5"
               id="g32"
               clip-path="url(#clipPath26)"><g
                 id="g30"
                 transform="translate(240,200)"><path
                   id="path28"
                   style="fill:#ffffff;fill-opacity:1;fill-rule:nonzero;stroke:none"
                   d="M 0,0 H -9.914 C -11.609,2.328 -14.285,3.908 -17.35,4.105 -24.305,4.553 -58.096,6.674 -88,7.581 V 8 h -8 -2 -8 V 7.967 c -2.104,0.022 -4.108,0.033 -6,0.033 -1.892,0 -3.896,-0.011 -6,-0.033 V 8 h -8 -2 -8 V 7.581 C -165.904,6.674 -199.695,4.553 -206.65,4.105 -209.715,3.908 -212.391,2.328 -214.086,0 H -224 c -6.617,0 -12,-5.383 -12,-12 v -128.231 c 0,-6.349 4.962,-11.612 11.296,-11.98 15.267,-0.889 68.802,-3.789 116.704,-3.789 47.618,0 95.309,2.882 108.791,3.765 6.285,0.412 11.209,5.672 11.209,11.974 L 12,-12 C 12,-5.383 6.617,0 0,0" /></g></g></g></g><g
           transform="translate(224,192)"
           id="g36"><path
             id="path38"
             style="fill:#bfbfbf;fill-opacity:1;fill-rule:nonzero;stroke:none"
             d="M 0,0 V 2.126 C 0,3.181 -0.812,4.054 -1.864,4.122 -12.259,4.791 -63.756,8 -96,8 -128.244,8 -179.741,4.791 -190.136,4.122 -191.188,4.054 -192,3.181 -192,2.126 V 0 h -16 c -2.209,0 -4,-1.791 -4,-4 v -128.231 c 0,-2.12 1.646,-3.871 3.761,-3.994 14.491,-0.843 68.297,-3.775 116.239,-3.775 47.433,0 94.864,2.87 108.268,3.748 2.103,0.138 3.732,1.884 3.732,3.991 V -4 c 0,2.209 -1.791,4 -4,4 z" /></g><g
           transform="translate(220,74)"
           id="g40"><path
             id="path42"
             style="fill:#cccccc;fill-opacity:1;fill-rule:nonzero;stroke:none"
             d="m 0,0 c 0,-5.522 -4.478,-10 -10,-10 -5.522,0 -10,4.478 -10,10 0,5.522 4.478,10 10,10 C -4.478,10 0,5.522 0,0" /></g><g
           transform="translate(210,84)"
           id="g44"><path
             id="path46"
             style="fill:#b3b3b3;fill-opacity:1;fill-rule:nonzero;stroke:none"
             d="m 0,0 c -5.522,0 -10,-4.478 -10,-10 0,-5.522 4.478,-10 10,-10 5.522,0 10,4.478 10,10 C 10,-4.478 5.522,0 0,0 m 0,-2 c 4.411,0 8,-3.589 8,-8 0,-4.411 -3.589,-8 -8,-8 -4.411,0 -8,3.589 -8,8 0,4.411 3.589,8 8,8" /></g><g
           transform="translate(20,192)"
           id="g48"><path
             id="path50"
             style="fill:#4c4c4c;fill-opacity:1;fill-rule:nonzero;stroke:none"
             d="M 0,0 Z" /></g><g
           transform="translate(32,192)"
           id="g52"><path
             id="path54"
             style="fill:#404040;fill-opacity:1;fill-rule:nonzero;stroke:none"
             d="M 0,0 Z" /></g><g
           transform="translate(96,52.5898)"
           id="g56"><path
             id="path58"
             style="fill:#b3b3b3;fill-opacity:1;fill-rule:nonzero;stroke:none"
             d="M 0,0 V 39.41 H -2 V 0.06 C -1.331,0.04 -0.664,0.02 0,0" /></g><g
           transform="translate(48,54.3594)"
           id="g60"><path
             id="path62"
             style="fill:#b3b3b3;fill-opacity:1;fill-rule:nonzero;stroke:none"
             d="M 0,0 V 37.641 H -2 V 0.085 C -1.339,0.057 -0.672,0.028 0,0" /></g><g
           transform="translate(224,188)"
           id="g64"><path
             id="path66"
             style="fill:#cccccc;fill-opacity:1;fill-rule:nonzero;stroke:none"
             d="m 0,0 v 4.004 c -26.185,1.183 -71.498,3.057 -96,3.057 -24.502,0 -69.815,-1.874 -96,-3.057 V 0 c 26.122,1.182 71.511,3.061 96,3.061 24.488,0 69.879,-1.879 96,-3.061" /></g><g
           transform="translate(224,176.0039)"
           id="g68"><path
             id="path70"
             style="fill:#cccccc;fill-opacity:1;fill-rule:nonzero;stroke:none"
             d="m 0,0 c -26.185,1.184 -71.498,3.057 -96,3.057 -24.502,0 -69.815,-1.873 -96,-3.057 v -4.004 c 26.122,1.182 71.511,3.061 96,3.061 24.488,0 69.879,-1.879 96,-3.061 z" /></g><g
           transform="translate(224,180)"
           id="g72"><path
             id="path74"
             style="fill:#cccccc;fill-opacity:1;fill-rule:nonzero;stroke:none"
             d="m 0,0 v 4.004 c -26.185,1.183 -71.498,3.057 -96,3.057 -24.502,0 -69.815,-1.874 -96,-3.057 V 0 c 26.122,1.182 71.511,3.061 96,3.061 24.488,0 69.879,-1.879 96,-3.061" /></g><path
           id="path76"
           style="fill:#b3b3b3;fill-opacity:1;fill-rule:nonzero;stroke:none"
           d="m 114,92 h -2 v 108 h 2 z" /><path
           id="path78"
           style="fill:#b3b3b3;fill-opacity:1;fill-rule:nonzero;stroke:none"
           d="m 144,92 h -2 v 108 h 2 z" /><g
           transform="translate(142,92)"
           id="g80"><path
             id="path82"
             style="fill:#b80000;fill-opacity:1;fill-rule:nonzero;stroke:none"
             d="m 0,0 h -28 v 4 l 2.194,0.627 c 7.663,2.189 15.949,2.189 23.612,0 L 0,4 Z" /></g><g
           transform="translate(225.959,95.1523)"
           id="g84"><path
             id="path86"
             style="fill:#b3b3b3;fill-opacity:1;fill-rule:nonzero;stroke:none"
             d="M 0,0 V 96.848 H -1.959 V 1.823 c 0,-1.069 -0.84,-1.95 -1.908,-1.998 -26.372,-1.183 -70.186,-2.974 -94.092,-2.974 -23.913,0 -67.742,1.791 -94.112,2.975 -1.068,0.048 -1.908,0.929 -1.908,1.998 v 95.024 h -1.959 V 0.001 c -0.007,0.001 -0.014,0.001 -0.021,0.001 v -0.181 c 0,-2.138 1.68,-3.899 3.817,-3.995 26.419,-1.186 70.237,-2.975 94.183,-2.975 23.946,0 67.765,1.789 94.184,2.975 2.136,0.096 3.816,1.857 3.816,3.995 V 0.002 C 0.027,0.002 0.014,0.001 0,0" /></g><g
           transform="translate(224,178.9399)"
           id="g88"><path
             id="path90"
             style="fill:#a6a6a6;fill-opacity:1;fill-rule:nonzero;stroke:none"
             d="m 0,0 v 2.002 c -26.169,1.184 -71.501,3.058 -96,3.058 -24.499,0 -69.831,-1.874 -96,-3.058 V 0 c 26.137,1.182 71.508,3.06 96,3.06 24.492,0 69.862,-1.878 96,-3.06" /></g><g
           transform="translate(32,186.9399)"
           id="g92"><path
             id="path94"
             style="fill:#a6a6a6;fill-opacity:1;fill-rule:nonzero;stroke:none"
             d="m 0,0 c 26.137,1.182 71.508,3.06 96,3.06 24.492,0 69.862,-1.878 96,-3.06 V 2.002 C 165.831,3.186 120.499,5.06 96,5.06 71.501,5.06 26.169,3.186 0,2.002 Z" /></g><g
           transform="translate(224,172.9424)"
           id="g96"><path
             id="path98"
             style="fill:#a6a6a6;fill-opacity:1;fill-rule:nonzero;stroke:none"
             d="m 0,0 c -26.169,1.183 -71.501,3.058 -96,3.058 -24.499,0 -69.831,-1.875 -96,-3.058 v -2.002 c 26.137,1.182 71.508,3.06 96,3.06 24.492,0 69.862,-1.878 96,-3.06 z" /></g></g></g></g></svg>
